app/images/grid__icon_tires.svg

<svg width="63" height="63" viewBox="0 0 63 63" fill="none" xmlns="http://www.w3.org/2000/svg">
<g clip-path="url(#clip0)">
<path d="M53.7014 28.3685L51.402 21.2924L38.2528 25.5649C36.7561 26.0513 35.2204 24.9357 35.2204 23.3616V9.53564H27.7799V23.3616C27.7799 24.9357 26.2442 26.0513 24.7475 25.5649L11.5983 21.2924L9.29883 28.3685L22.4485 32.6411C23.9453 33.1275 24.5316 34.9328 23.6064 36.206L15.4795 47.3918L21.4992 51.7647L29.6261 40.579C30.5508 39.3058 32.4494 39.3058 33.3742 40.579L41.5011 51.7647L47.5203 47.3918L39.3934 36.206C38.4686 34.9328 39.055 33.1275 40.5518 32.6411L53.7014 28.3685Z" fill="#C40B0B"/>
<path d="M34.9735 31.5C34.9735 33.4183 33.4186 34.9732 31.5003 34.9732C29.582 34.9732 28.0271 33.4183 28.0271 31.5C28.0271 29.5818 29.582 28.0269 31.5003 28.0269C33.4186 28.0269 34.9735 29.5818 34.9735 31.5Z" fill="#02133C"/>
<path d="M59.6152 17.2809C57.4739 13.0545 54.3439 9.29917 50.5636 6.42151C50.1584 6.11293 49.5792 6.19128 49.2707 6.59695C48.9616 7.00214 49.0399 7.58132 49.4456 7.8899C53.0053 10.5998 55.9527 14.1355 57.969 18.1148C60.0824 22.2859 61.1543 26.7896 61.1543 31.5C61.1543 39.4211 58.07 46.8679 52.4689 52.4689C46.8679 58.07 39.4211 61.1543 31.5 61.1543C23.5789 61.1543 16.1321 58.07 10.5311 52.4689C4.93005 46.8679 1.8457 39.4211 1.8457 31.5C1.8457 23.5789 4.93005 16.1321 10.5311 10.5311C16.1321 4.93005 23.5789 1.8457 31.5 1.8457C36.8006 1.8457 42.0022 3.26074 46.5415 5.93797C46.9808 6.19704 47.5461 6.05093 47.8052 5.61209C48.0642 5.17278 47.9181 4.60705 47.4793 4.34846C42.6559 1.50348 37.1304 0 31.5 0C23.0862 0 15.1756 3.2766 9.22611 9.22611C3.2766 15.1756 0 23.0862 0 31.5C0 39.9138 3.2766 47.8244 9.22611 53.7739C15.1756 59.7234 23.0862 63 31.5 63C39.9138 63 47.8244 59.7234 53.7739 53.7739C59.7234 47.8244 63 39.9138 63 31.5C63 26.4969 61.8613 21.713 59.6152 17.2809Z" fill="#02133C"/>
<path d="M31.5 11.2258C20.3205 11.2258 11.2256 20.3207 11.2256 31.5002C11.2256 42.6797 20.3205 51.7746 31.5 51.7746C42.6795 51.7746 51.7744 42.6797 51.7744 31.5002C51.7744 20.3207 42.6795 11.2258 31.5 11.2258ZM44.7741 18.7307L41.0255 23.6939L37.9671 24.6874C37.5384 24.8268 37.0827 24.7547 36.7175 24.4894C36.3526 24.2241 36.1431 23.8131 36.1431 23.3618V20.8754L40.332 15.3296C41.982 16.2347 43.4793 17.3849 44.7741 18.7307V18.7307ZM46.0123 20.1544C46.4045 20.6548 46.7708 21.1768 47.1101 21.717L44.0907 22.698L46.0123 20.1544ZM36.1431 13.6642C37.0001 13.8877 37.8335 14.1713 38.6377 14.5101L36.1431 17.8132V13.6642ZM34.2974 13.2835V23.3618C34.2974 24.4111 34.7843 25.3661 35.6326 25.9828C36.1974 26.3933 36.9381 26.8042 38.5377 26.4428L48.0296 23.3589C48.8477 25.0128 49.4259 26.8062 49.7152 28.6937L40.2666 31.7636C39.2692 32.088 38.5112 32.846 38.1868 33.8434C37.8628 34.8412 38.0306 35.9001 38.6473 36.7484L44.3915 44.6552C42.0128 46.9873 39.0073 48.6816 35.6533 49.4569L35.7288 45.3901L36.5074 46.4619C36.8069 46.8743 37.3841 46.9656 37.7965 46.6662C38.2089 46.3663 38.3002 45.7895 38.0003 45.3771L34.121 40.0371C33.5043 39.1882 32.5492 38.7018 31.5005 38.7018C30.4512 38.7018 29.4961 39.1882 28.8795 40.0371L23.1486 47.925C21.4707 47.0685 19.9417 45.962 18.6089 44.6552L24.3536 36.7484C24.9698 35.9001 25.1376 34.8412 24.8136 33.8434C24.4892 32.8455 23.7312 32.0876 22.7338 31.7636L13.2852 28.6937C13.5745 26.8062 14.1528 25.0128 14.9708 23.3589L23.1881 26.0289C23.8177 26.1779 24.2243 25.8261 24.3508 25.4363C24.5084 24.9518 24.2431 24.4308 23.7586 24.2736L22.2715 23.7905L18.5248 18.427C19.8499 17.1114 21.3731 15.9958 23.0453 15.1287L26.8569 20.5851V23.3618C26.8569 23.7795 26.6819 24.1573 26.3637 24.426C25.9744 24.7543 25.9249 25.3368 26.2537 25.7261C26.4363 25.9424 27.1039 26.2323 27.5543 25.8362C28.2714 25.2056 28.7026 24.3188 28.7026 23.3618V13.2835C29.6149 13.1441 30.5492 13.0715 31.5 13.0715C32.4507 13.0715 33.3851 13.1441 34.2974 13.2835V13.2835ZM49.8349 33.3622L45.709 31.9361L49.9051 30.5725C49.9205 30.8802 49.8969 32.7494 49.8349 33.3622ZM44.1882 41.2353L46.5905 42.0654C46.2988 42.4802 45.9912 42.883 45.6677 43.2718L44.1882 41.2353ZM42.294 38.6283L40.1402 35.6636C39.8749 35.2988 39.8028 34.8431 39.9421 34.4139C40.0815 33.9847 40.4079 33.6583 40.8366 33.5189L42.7963 32.8826L49.5518 35.2171C49.1683 37.083 48.5006 38.846 47.598 40.461L42.294 38.6283ZM26.419 46.5629L26.37 49.2016C25.861 49.0536 25.3606 48.8844 24.8703 48.6946L26.419 46.5629ZM13.0948 30.5725L16.2878 31.6103L13.104 32.5797C13.0828 32.2221 13.0795 30.8797 13.0948 30.5725ZM19.3529 32.6062L22.1628 33.5189C22.592 33.6583 22.9184 33.9847 23.0578 34.4139C23.1972 34.8431 23.1251 35.2988 22.8598 35.6636L21.2525 37.876L15.0343 39.7693C14.2027 38.1212 13.612 36.3312 13.3078 34.4471L19.3529 32.6062ZM19.4524 40.3533L17.3323 43.2718C16.8415 42.6821 16.3863 42.062 15.9711 41.4136L19.4524 40.3533ZM19.3592 22.8441L15.8898 21.7165C16.3042 21.0576 16.7589 20.426 17.251 19.8266L19.3592 22.8441ZM26.8569 17.3618L24.7531 14.3505C25.4356 14.0809 26.1378 13.8516 26.8569 13.6647V17.3618ZM28.208 49.6337L28.3137 43.9558L30.3724 41.1219C30.6377 40.7571 31.0486 40.5475 31.5 40.5475C31.9513 40.5475 32.3623 40.7571 32.6276 41.1219L33.9287 42.9128L33.8009 49.7856C33.0467 49.8798 32.2791 49.9289 31.5 49.9289C30.3767 49.9289 29.2765 49.8274 28.208 49.6337V49.6337Z" fill="#02133C"/>
<path d="M27.1042 31.5C27.1042 33.924 29.0764 35.8961 31.5003 35.8961C33.9242 35.8961 35.8963 33.924 35.8963 31.5C35.8963 29.0761 33.9242 27.104 31.5003 27.104C29.0764 27.104 27.1042 29.0761 27.1042 31.5ZM34.0506 31.5C34.0506 32.9064 32.9067 34.0504 31.5003 34.0504C30.0939 34.0504 28.9499 32.9064 28.9499 31.5C28.9499 30.0937 30.0939 28.9497 31.5003 28.9497C32.9067 28.9497 34.0506 30.0937 34.0506 31.5Z" fill="black"/>
</g>
<defs>
<clipPath id="clip0">
<rect width="63" height="63" fill="white"/>
</clipPath>
</defs>
</svg>

<svg width="63" height="63" fill="none" xmlns="http://www.w3.org/2000/svg"><g clip-path="url(#clip0)"><path d="M53.701 28.369l-2.299-7.077-13.15 4.273a2.316 2.316 0 01-3.032-2.203V9.536h-7.44v13.826a2.316 2.316 0 01-3.033 2.203l-13.149-4.273-2.3 7.076 13.15 4.273a2.316 2.316 0 011.158 3.565L15.48 47.392l6.02 4.373 8.127-11.186a2.316 2.316 0 013.748 0l8.127 11.186 6.02-4.373-8.128-11.186a2.317 2.317 0 011.159-3.565l13.15-4.272z" fill="#C40B0B"/><path d="M34.974 31.5a3.473 3.473 0 11-6.947 0 3.473 3.473 0 016.947 0z" fill="#02133C"/><path d="M59.615 17.28a31.784 31.784 0 00-9.051-10.858.922.922 0 00-1.118 1.468 29.932 29.932 0 018.523 10.225c2.113 4.17 3.185 8.675 3.185 13.385 0 7.921-3.084 15.368-8.685 20.969-5.601 5.601-13.048 8.685-20.969 8.685-7.921 0-15.368-3.084-20.969-8.685C4.93 46.868 1.846 39.42 1.846 31.5c0-7.921 3.084-15.368 8.685-20.969C16.132 4.93 23.58 1.846 31.5 1.846c5.3 0 10.502 1.415 15.041 4.092a.923.923 0 10.938-1.59A31.469 31.469 0 0031.5 0C23.086 0 15.176 3.277 9.226 9.226 3.276 15.176 0 23.086 0 31.5c0 8.414 3.277 16.324 9.226 22.274C15.176 59.724 23.086 63 31.5 63c8.414 0 16.324-3.277 22.274-9.226C59.724 47.824 63 39.914 63 31.5c0-5.003-1.139-9.787-3.385-14.22z" fill="#02133C"/><path d="M31.5 11.226c-11.18 0-20.274 9.095-20.274 20.274 0 11.18 9.094 20.275 20.274 20.275 11.18 0 20.274-9.095 20.274-20.275 0-11.18-9.095-20.274-20.274-20.274zm13.274 7.505l-3.748 4.963-3.059.993a1.38 1.38 0 01-1.25-.198 1.38 1.38 0 01-.574-1.127v-2.487l4.189-5.545a18.544 18.544 0 014.442 3.4zm1.238 1.423c.392.5.759 1.023 1.098 1.563l-3.02.981 1.922-2.544zm-9.869-6.49c.857.224 1.69.507 2.495.846l-2.495 3.303v-4.149zm-1.846-.38v10.078c0 1.05.487 2.004 1.336 2.62.564.411 1.305.822 2.905.46l9.492-3.083a18.264 18.264 0 011.685 5.335l-9.448 3.07a3.208 3.208 0 00-2.08 2.08 3.206 3.206 0 00.46 2.904l5.745 7.907a18.41 18.41 0 01-8.739 4.802l.076-4.067.778 1.072A.923.923 0 1038 45.377l-3.879-5.34a3.206 3.206 0 00-2.62-1.335c-1.05 0-2.005.486-2.622 1.335l-5.73 7.888a18.505 18.505 0 01-4.54-3.27l5.745-7.907a3.207 3.207 0 00.46-2.905 3.206 3.206 0 00-2.08-2.08l-9.449-3.07a18.29 18.29 0 011.686-5.334l8.217 2.67c.63.149 1.036-.203 1.163-.593a.923.923 0 00-.592-1.162l-1.488-.483-3.746-5.364a18.519 18.519 0 014.52-3.298l3.812 5.456v2.777c0 .418-.175.795-.493 1.064a.923.923 0 00-.11 1.3c.182.216.85.506 1.3.11.717-.63 1.149-1.517 1.149-2.474V13.284a18.512 18.512 0 015.594 0zm15.538 20.078l-4.126-1.426 4.196-1.363c.015.307-.008 2.176-.07 2.79zm-5.647 7.873l2.402.83c-.291.415-.599.818-.922 1.207l-1.48-2.037zm-1.894-2.607l-2.154-2.964a1.38 1.38 0 01-.198-1.25c.14-.43.466-.756.895-.895l1.96-.636 6.755 2.334a18.291 18.291 0 01-1.954 5.244l-5.304-1.833zm-15.875 7.935l-.049 2.639a18.333 18.333 0 01-1.5-.507l1.549-2.132zm-13.324-15.99l3.193 1.037-3.184.97c-.021-.358-.024-1.7-.01-2.007zm6.258 2.033l2.81.913c.429.14.755.466.895.895.14.43.067.885-.198 1.25l-1.607 2.212-6.219 1.893a18.271 18.271 0 01-1.726-5.322l6.045-1.84zm.1 7.747l-2.12 2.919c-.491-.59-.947-1.21-1.362-1.858l3.481-1.06zm-.094-17.509l-3.47-1.128c.415-.658.87-1.29 1.362-1.89l2.108 3.018zm7.498-5.482l-2.104-3.011c.683-.27 1.385-.5 2.104-.686v3.697zm1.351 32.272l.106-5.678 2.058-2.834a1.38 1.38 0 011.128-.575c.451 0 .862.21 1.128.575l1.3 1.79-.127 6.874a18.555 18.555 0 01-5.593-.152z" fill="#02133C"/><path d="M27.104 31.5a4.401 4.401 0 004.396 4.396 4.401 4.401 0 004.396-4.396 4.401 4.401 0 00-4.396-4.396 4.401 4.401 0 00-4.396 4.396zm6.947 0a2.553 2.553 0 01-2.55 2.55 2.553 2.553 0 01-2.551-2.55 2.553 2.553 0 012.55-2.55 2.553 2.553 0 012.55 2.55z" fill="#000"/></g><defs><clipPath id="clip0"><path fill="#fff" d="M0 0h63v63H0z"/></clipPath></defs></svg>
